X: 1311
T: The Happy Days of Youth
R:Reel
N:Collected by F. O'Neill
B:O'Neill's 1311
Z:Transcribed by Trish O'Neil
M:C|
L:1/8
K:G
G2Bde2dB|(GA)BG (AG)EF|G2Bde2dB|(cA)BG (EG)G2:|
(f<a)ag (fd)de|fdag (fd)d2|(f<a)ag (fd)df|edef gfed|
(f<a)ag (fd)de|fdag (fd)d2|bgaf gfef|dfaf gedB|]


